X: 10221
Q: "Slow"
M: C
L: 1/8
K: Dm
d2d>e d>cA2 | f2f>a g>fec |\
d<da2 d>cAF | G<G A>^c dD D :|\
E |\
f2fa g>feg | f>d f/e/d/c/ Ad de |\
f<fc'2 efg2 | f>edf eaHa2 |\


